X:3163
T:Two William Davieses, The
O:ireland
R:Other
N:see also Planxty Davis
M:C
C:Turlough O'Carolan
K:F
AB|\
c3 f dcBA|cAcf dcBA|BAGA FGAB|c3B A2c2|\
d2df d2cd|fefg a2ga|fedc f2A2|G4 F2||\
fg|\
a2a2 a2gf|g>fga g2fg|a>gfd cfAB|c3B A2c2|\
d2df d2cd|fefg a2ga|fedc f2A2|G4 F2||
